!!!!SEGMENT: pl-sa--552-a-ix-32--045_anonim--valc.krn
!!!id: 18xx:556
!!!COM: Anonim
!!!COM-rism: pe30004985
!!!CDT:
!!!CNT:
!!!OTL: Valc
!!!PDT:
!!!SMS-siglum: PL-SA
!!!SMS-shelfmark: 552/A IX 32
!!!NIFC-rismID: 1001069590
!!!URL-scan: http://bc.bdsandomierz.pl/dlibra/publication/1308/edition/1276/content
!!!ONB-nifc: Str. 24, s. 3-4
!!!SMS-variant:
!!!SMS-altvar:
**kern	**kern
*part1	*part1
*staff2	*staff1
*I"Piano	*
*I'Pno.	*
*clefF4	*clefG2
*k[f#]	*k[f#]
*M3/8	*M3/8
*>[A,A,B,B,C,C]	*>[A,A,B,B,C,C]
*>A	*>A
!LO:TX:a:t=P:problem:omyłkowo wpisany klucz F3 zamiast F4	!
8r	16gg\LL
.	16gg\JJ
=1	=1
8G\L	8dd\
8d 8B\	8r
8dJ 8B\	16gg\LL
.	16gg\JJ
=2	=2
*rep	*rep
8G\L	8dd\
8d 8B\	8r
8dJ 8B\	16gg\LL
.	16gg\JJ
*Xrep	*Xrep
=3	=3
*rep	*
.	16qqgg/LL
.	16qqaa/JJ
8G\L	8bb\L
8d 8B\	8aa\
8dJ 8B\	8gg\J
*Xrep	*
=4	=4
8D\L	4ff#\
8c 8A\	.
8cJ 8A\	16ff#\LL
.	16ff#\JJ
=5	=5
*rep	*
8D\L	4dd\
8c 8A\	.
8cJ 8A\	16ff#\LL
.	16ff#\JJ
*Xrep	*
=6	=6
*rep	*
8D\L	4dd\
8c 8A\	.
8cJ 8A\	16aa\LL
.	16aa\JJ
*Xrep	*
=7	=7
*rep	*
.	16qqaa/LL
.	16qqbb/JJ
8D\L	8ccc\L
8c 8A\	8bb\
8cJ 8A\	8aa\J
*Xrep	*
=8	=8
4B 4G\	4gg\
=:|!|:	=:|!|:
*>B	*>B
8r	16gg\LL
.	16gg\JJ
=9	=9
8E\L	4ee\
8B 8G\	.
8BJ 8G\	16gg\LL
.	16gg\JJ
=10	=10
8BB/	4ff#\
8F#L 8D\	.
8F#J 8D\	16b\LL
.	16b\JJ
=11	=11
*rep	*
8BB/	8b\L
8F#L 8D\	8cc#X\
8F#J 8D\	8dd#X\J
*Xrep	*
=12	=12
8E\L	16ee\LL
.	16gg\
8B 8G\	16bb\
.	16ccc\
8BJ 8G\	16bb\
.	16gg\JJ
=13	=13
*rep	*
8E\L	4ee\
8B 8G\	.
8BJ 8G\	16gg\LL
.	16gg\JJ
*Xrep	*
=14	=14
8BB\L	4ff#\
8F# 8D\	.
8F#J 8D\	16b\LL
.	16b\JJ
=15	=15
*rep	*
8BB\L	8b\L
8F# 8D\	8cc#X\
8F#J 8D\	8dd#X\J
*Xrep	*
=16	=16
4G 4E\	4ee\
=:|!|:	=:|!|:
*>C	*>C
8r	16gg\LL
.	16gg\JJ
!!LO:LB:g=original
=17	=17
8G\L	4dd\
8d 8B\	.
8dJ 8B\	16gg\LL
.	16gg\JJ
=18	=18
*rep	*rep
8G\L	4dd\
8d 8B\	.
8dJ 8B\	16gg\LL
.	16gg\JJ
*Xrep	*Xrep
=19	=19
*rep	*
.	16qqgg/LL
.	16qqaa/JJ
8G\L	8bb\L
8d 8B\	8aa\
8dJ 8B\	8gg\J
*Xrep	*
=20	=20
8D\L	4ff#\
8c 8A\	.
8cJ 8A\	16ff#\LL
.	16ff#\JJ
=21	=21
*rep	*
8D\L	8dd\L
8c 8A\	8r
8cJ 8A\	16ff#\Lk
.	16ff#\JJ
*Xrep	*
=22	=22
*rep	*
.	16qqaa/LL
.	16qqbb/JJ
8D\L	8ccc\L
8c 8A\	8bb\
8cJ 8A\	8aa\J
*Xrep	*
=23	=23
*tremolo	*
8d 8B 8G\L	8gg\L
.	8qaa/
8d 8B 8G\	16gg\L
.	16ff#\
8d 8B 8G\J	16gg\
.	16aa\JJ
=24	=24
*rep	*
8d 8B 8G\L	8bb\L
.	8qqddd/
8d 8B 8G\	16ccc\L
.	16aa#X\
8d 8B 8G\J	16bb\
.	16ccc#X\JJ
*Xrep	*
=25	=25
8fn 8B 8G\L	8ddd\L
8fn 8B 8G\	8ccc#X\
8fn 8B 8G\J	8bb\J
=26	=26
*rep	*
8fn 8B 8G\L	8ddd\L
8fn 8B 8G\	8ccc\
8fn 8B 8G\J	8bb\J
*Xrep	*
=27	=27
8f#X 8c#X 8A#X 8F#\L	8aa#X\L
8f#X 8c#X 8A#X 8F#\	16aa#\L
.	16ccc#X\J
8f#X 8c#X 8A#X 8F#\J	8fff#\J
=28	=28
8e 8c#X 8A#X 8F#\L	8ccc#X\L
8e 8c#X 8A#X 8F#\	8bb\
8e 8c#X 8A#X 8F#\J	8aa#X\J
=29	=29
8d 8B\L	8bb\L
8d 8B\	16bb\L
.	16ddd\J
8d 8B\J	8fff#\J
=30	=30
8d 8B 8E\L	8bb\L
8d 8B 8E\	8aa\
8d 8B 8E\J	8gg#X\J
=31	=31
8c#X 8A\L	8aa\L
8c#X 8A\	16aa\L
.	16ccc\J
8c#X 8A\J	8eee\J
=32	=32
8c 8A 8D\L	8aa\L
8c 8A 8D\	8gg\
8c 8A 8D\J	8ff#\J
=33	=33
8B 8G 8D\L	8bb\L
8B 8G 8D\	16bb\L
.	16ddd\J
8B 8G 8D\J	8fff#\J
=34	=34
8c 8A 8D\L	8ff#\L
8c 8A 8D\	16ff#\L
.	16aa\J
8c 8A 8D\J	8ddd\J
*Xtremolo	*
=35	=35
4B 4G\	4gg\
=:|!|:;;	=:|!|:;;
*-	*-
!!!system-decoration: {s1,s2}
!!!ENC: Marta Lawrence
!!!END: 2020-12-13
!!!ENC:Anastazja Marusiak
!!!END:2020-06-18
